X:14
T:The Ton
M:4/4
R:reel
Q:1/2=120
L:1/8
K:G
Bd|"G"d2g2g2Bc|"G"B2d2d2BA|"G"G2G2 "D7"A2A2|"G"BABc B2Bc|
"G"d2g2g2Bc|"G"B2d2d2BA|"G"G2G2 "D7"AGAB|"G"G2 G2 G2:|
|:Bc|"G"d2g2 "C"e2c2|"G"d2g2 "C"e2c2|"G"d3B G2B2|"A7"AGAB A2Bc|
"G"d2g2 "C"e2c2|"G"d2g2 "C"e2c2|"G"B2B2 "D7"AGAB|"G"G2 G2 G2:|
%%newpage
